X:1
T:Title
%%score { ( 1 3 4 ) | ( 2 5 ) }
L:1/8
M:2/4
K:C
V:1 treble nm="Grand Piano"
V:3 treble 
V:4 treble 
V:2 bass 
V:5 bass 
V:1
 z2 z[Q:1/4=96] C | EE E[DF] | [EG] [EG]2 [EG] | AA AA | c3 A | [EG][EG] [EG][EG] | [FA][EG] EC | %7
 F2 E2 | [B,D]3 C | EE E[DF] | [EG] [EG]2 [EG] | AA ^GA | [Ac]3 [FA] | [EG][EG] [Gc]d | e e2 [Gc] | %15
 [Fd][Fd] cB |[M:3/8] [Ec]3 |[M:1/8] [Ec] |[M:2/4] [FB]2 [DF]2 | z2[K:bass] z[K:treble] B | %20
 [EA]2 [CE]2 | z2[K:bass] z[K:treble] A | [FG][Ff] [Ff][Fe] | [Fe]2 [Fd]2 | [EG][Ee] [Ee][Ed] | %25
 [Ed][Ec] [EB][EA] | [FB]2 [DF]2 | z2[K:bass] z[K:treble] B | [EA]2 [CE]2 | %29
 z2[K:bass] z[K:treble] A | [FG][FA] [FB][Fc] | [Fd][E^c] [Fd][Ge] | [Ec]4- |[M:3/8] [Ec]3 |] %34
V:2
 z2 z [C,E,] | [C,G,C][C,G,C] [C,G,C][C,G,] | [C,C] [C,C]2 [C,C] | [F,CF][F,CF] [F,CF][F,CF] | %4
 [F,A,F]3 [F,CF] | [C,C][C,C] [C,C][C,C] | [C,C][C,C] [C,G,C][E,G,] | [D,G,B,]2 [C,G,C]2 | %8
 [G,,G,]3 [C,E,] | [C,G,C][C,G,C] [C,G,C][C,G,] | [C,C] [C,C]2 [C,C] | [F,CF][F,CF] [F,CF][F,CF] | %12
 [F,C]3 [F,C] | [C,C][C,C] [E,C][K:treble][G,B,G] | [CG] [CG]2[K:bass] [E,C] | %15
 [F,A,][D,A,] [G,E][G,D] |[M:3/8] [C,G,]3 |[M:1/8] [C,G,] |[M:2/4] [D,G,]2 [G,,G,]2 | D,2 z [G,F] | %20
 [C,G,]2 [G,,G,]2 | C,2 z [G,E] | [B,,G,]2 [G,,G,]2 | [B,,G,]2 [G,,G,]2 | [C,G,]2 [G,,G,]2 | %25
 [C,G,]2 [G,,G,]2 | [D,G,]2 [G,,G,]2 | D,2 z [G,F] | [C,G,]2 [G,,G,]2 | C,2 z [G,E] | %30
 [D,B,]2 [G,,G,]2 | [B,,G,]2 [G,,B,]2 | [C,G,C]4- |[M:3/8] [C,G,C]3 |] %34
V:3
 x4 | x4 | x4 | x4 | x4 | x4 | x4 | x4 | x4 | x4 | x4 | x4 | x4 | x4 | x4 | x4 |[M:3/8] x3 | %17
[M:1/8] x |[M:2/4] x4 | [FB]4[K:bass][K:treble] | x4 | [EA]4[K:bass][K:treble] | x4 | x4 | x4 | %25
 x4 | x4 | [FB]4[K:bass][K:treble] | x4 | [EA]4[K:bass][K:treble] | x4 | x4 | x4 |[M:3/8] x3 |] %34
V:4
 x4 | x4 | x4 | x4 | x4 | x4 | x4 | x4 | x4 | x4 | x4 | x4 | x4 | x4 | x4 | x4 |[M:3/8] x3 | %17
[M:1/8] x |[M:2/4] x4 | z2[K:bass] G,,2[K:treble] | x4 | z2[K:bass] G,,2[K:treble] | x4 | x4 | x4 | %25
 x4 | x4 | z2[K:bass] G,,2[K:treble] | x4 | z2[K:bass] G,,2[K:treble] | x4 | x4 | x4 |[M:3/8] x3 |] %34
V:5
 x4 | x4 | x4 | x4 | x4 | x4 | x4 | x4 | x4 | x4 | x4 | x4 | x4 | x3[K:treble] x | x3[K:bass] x | %15
 x4 |[M:3/8] x3 |[M:1/8] x |[M:2/4] x4 | G,4 | x4 | G,4 | x4 | x4 | x4 | x4 | x4 | G,4 | x4 | G,4 | %30
 x4 | x4 | x4 |[M:3/8] x3 |] %34

